X:9
T:Jean's Reel
R:reel
C:Bobby MacLeod
D:Andrea Beaton, The Tap Session
O:20th century Scottish
Z:Paul Stewart Cranford (P.S.C.), <http://www.cranfordpub.com>
L:1/8
M:C|
Q:333
K:G
G2 GA BGBd|gB B/B/B eBdB|A2 AB AGEG|AcBA GEDE|
G2 GA BGBd|gabg abge|d2 Bd gedB|[1AGFA G2 (3(DEF):|[2AGFA GABd||
|:gBdg B/B/B gB|dgBd gBdg|fddg fdaf|gfga baga|
(b/a/g) gf gfed|efgf edBd|d2 Bd gedB|[1AGFA GABd:|[2AGFA G2 G||
||A|BD D/D/D EDB,D|D/D/D BD D/D/D BD|AD D/D/D ADFA|dD^cD =cAFA|
BDGB D/D/D BD|GBDG BDGB|ADFA dD^cD|cAFD G2 GA|
BD D/D/D EDB,D|D/D/D BD D/D/D BD|AD D/D/D AD D/D/D|dD D/D/D cD D/D/D|
BDGB D/D/D BD|GBDG B,DGB|ADFA dD^cD|cAFA GABd||
|:gBdg BdgB|dgBd gBdg|fddg fdaf|gfga baga|
(b/a/g) gf gfed|efgf edBd|d2 Bd gedB|[1AGFA GABd:|[2AGFA G2 GD|]

